assets/svg/1F550.svg

<svg xmlns="http://www.w3.org/2000/svg" viewBox="0 0 64 64" enable-background="new 0 0 64 64"><path fill="#e0e7ec" d="m61.61 32.07c0 16.366-13.265 29.628-29.627 29.628-16.362 0-29.626-13.262-29.626-29.628 0-16.361 13.264-29.625 29.626-29.625 16.363.0001 29.627 13.264 29.627 29.625"/><path fill="#d1d7da" d="m52.27 47.23c-16.362 0-29.626-13.264-29.626-29.625 0-5.442 1.492-10.523 4.05-14.905-13.774 2.55-24.21 14.599-24.21 29.11 0 16.364 13.264 29.629 29.626 29.629 10.923 0 20.438-5.929 25.576-14.724-1.756.327-3.561.516-5.412.516"/><g fill="#98a9b4"><path d="m0 32.08c0 17.633 14.346 31.979 31.98 31.979 17.635 0 31.982-14.346 31.982-31.979 0-17.638-14.348-31.984-31.982-31.984-17.634 0-31.98 14.346-31.98 31.984m6.226 0c0-14.204 11.554-25.758 25.754-25.758 14.202 0 25.756 11.554 25.756 25.758 0 14.2-11.554 25.754-25.756 25.754-14.2 0-25.754-11.554-25.754-25.754"/><path d="m63.965 32.07c0-17.632-14.346-31.979-31.98-31.979s-31.983 14.347-31.983 31.979c0 17.639 14.348 31.984 31.982 31.984s31.981-14.345 31.981-31.984m-6.227 0c0 14.204-11.554 25.758-25.754 25.758-14.202 0-25.756-11.554-25.756-25.758 0-14.198 11.554-25.754 25.756-25.754 14.201 0 25.754 11.556 25.754 25.754"/></g><path fill="#85939c" d="m33.86 11.12c0-1.437-.847-2.601-1.889-2.601l0 0c-1.042 0-1.89 1.164-1.89 2.601v21.07c0 1.442.847 2.604 1.89 2.604l0 0c1.042 0 1.889-1.162 1.889-2.604v-21.07"/><path fill="#788288" d="m42.15 20.279c.742-1.228.617-2.663-.273-3.199l0 0c-.895-.541-2.222.022-2.962 1.254l-7.876 13.06c-.739 1.232-.614 2.668.278 3.203l0 0c.891.539 2.219-.022 2.96-1.249l7.873-13.07"/></svg>

<?xml version="1.0" encoding="UTF-8" standalone="no"?>
<!-- Generator: Adobe Illustrator 16.0.0, SVG Export Plug-In . SVG Version: 6.00 Build 0)  -->

<svg
   xmlns:dc="http://purl.org/dc/elements/1.1/"
   xmlns:cc="http://creativecommons.org/ns#"
   xmlns:rdf="http://www.w3.org/1999/02/22-rdf-syntax-ns#"
   xmlns:svg="http://www.w3.org/2000/svg"
   xmlns="http://www.w3.org/2000/svg"
   xmlns:sodipodi="http://sodipodi.sourceforge.net/DTD/sodipodi-0.dtd"
   xmlns:inkscape="http://www.inkscape.org/namespaces/inkscape"
   version="1.1"
   id="Layer_1"
   x="0px"
   y="0px"
   width="64px"
   height="64px"
   viewBox="0 0 64 64"
   enable-background="new 0 0 64 64"
   xml:space="preserve"
   inkscape:version="0.48.5 r10040"
   sodipodi:docname="1F550.svg"
   inkscape:export-filename="D:\TESTINGEMOJI\SVGTEST\1F550.png"
   inkscape:export-xdpi="90"
   inkscape:export-ydpi="90"><metadata
   id="metadata3856"><rdf:RDF><cc:Work
       rdf:about=""><dc:format>image/svg+xml</dc:format><dc:type
         rdf:resource="http://purl.org/dc/dcmitype/StillImage" /><dc:title></dc:title></cc:Work></rdf:RDF></metadata><defs
   id="defs3854" /><sodipodi:namedview
   pagecolor="#ffffff"
   bordercolor="#666666"
   borderopacity="1"
   objecttolerance="10"
   gridtolerance="10"
   guidetolerance="10"
   inkscape:pageopacity="0"
   inkscape:pageshadow="2"
   inkscape:window-width="640"
   inkscape:window-height="480"
   id="namedview3852"
   showgrid="false"
   inkscape:zoom="3.6875"
   inkscape:cx="32"
   inkscape:cy="32"
   inkscape:window-x="394"
   inkscape:window-y="233"
   inkscape:window-maximized="0"
   inkscape:current-layer="Layer_1" />
<g
   id="g3838">
	<path
   fill="#E0E7EC"
   d="M61.609,32.072c0,16.366-13.265,29.628-29.627,29.628C15.62,61.7,2.356,48.438,2.356,32.072   c0-16.361,13.264-29.625,29.626-29.625C48.345,2.448,61.609,15.711,61.609,32.072z"
   id="path3840" />
	<path
   fill="#D1D7DA"
   d="M52.271,47.235c-16.362,0-29.626-13.264-29.626-29.625c0-5.442,1.492-10.523,4.05-14.905   C12.921,5.255,2.481,17.304,2.481,31.814c0,16.364,13.264,29.629,29.626,29.629c10.923,0,20.438-5.929,25.576-14.724   C55.927,47.046,54.122,47.235,52.271,47.235z"
   id="path3842" />
	<path
   fill="#98A9B4"
   d="M0,32.076c0,17.633,14.346,31.979,31.98,31.979c17.635,0,31.982-14.346,31.982-31.979   c0-17.638-14.348-31.984-31.982-31.984C14.346,0.092,0,14.438,0,32.076z M6.226,32.076c0-14.204,11.554-25.758,25.754-25.758   c14.202,0,25.756,11.554,25.756,25.758c0,14.2-11.554,25.754-25.756,25.754C17.78,57.83,6.226,46.276,6.226,32.076z"
   id="path3844" />
	<path
   fill="#98A9B4"
   d="M63.965,32.068c0-17.632-14.346-31.979-31.98-31.979S0.002,14.436,0.002,32.068   c0,17.639,14.348,31.984,31.982,31.984S63.965,49.707,63.965,32.068z M57.738,32.068c0,14.204-11.554,25.758-25.754,25.758   c-14.202,0-25.756-11.554-25.756-25.758c0-14.198,11.554-25.754,25.756-25.754C46.185,6.314,57.738,17.87,57.738,32.068z"
   id="path3846" />
	<path
   fill="#85939C"
   d="M33.86,11.121c0-1.437-0.847-2.601-1.889-2.601l0,0c-1.042,0-1.89,1.164-1.89,2.601v21.072   c0,1.442,0.847,2.604,1.89,2.604l0,0c1.042,0,1.889-1.162,1.889-2.604V11.121z"
   id="path3848" />
	<path
   fill="#788288"
   d="M42.153,20.279c0.742-1.228,0.617-2.663-0.273-3.199l0,0c-0.895-0.541-2.222,0.022-2.962,1.254   L31.042,31.39c-0.739,1.232-0.614,2.668,0.278,3.203l0,0c0.891,0.539,2.219-0.022,2.96-1.249L42.153,20.279z"
   id="path3850" />
</g>
</svg>
